X:1
T:Freu Dich Sehr, 87.87.77.88
T:Freu Dich Sehr, 87.87.77.88
T:Harmonized by Johann Sebastian Bach (1685–1750)
T:Genevan Psalter, 1551
T:Public Domain Courtesy of the Cyber Hymnal™
C:Harmonized by Johann Sebastian Bach (1685–1750)
Z:Public Domain
Z:Courtesy of the Cyber Hymnal™
%%score ( 1 2 ) ( 3 4 )
L:1/8
Q:1/4=110
M:4/4
K:F
V:1 treble 
V:2 treble 
V:3 bass 
V:4 bass 
V:1
|: [CF]2 [CG]2 [CA]2 [CG]2 | F2 [CE]2 [_B,D]2 [G,C]2 | [DF]2 [CG]2 [CA]2 [GB]2 | %3
 [CA]2 [CG]2 [CF]4 x :| [FA]2 [FB]2 [Fc]2 [FB]2 | A2 z [FA]4 x | [Fc]2 [Fc]2 d2 z x3 | %7
 [DB]2 A2 [EG]4 | A2 z B2 ([FA][EG]) x | [DF]2 [EG]2 [FA]4 | [DF]4 (AB) [Gc]2 | %11
 [FB]2 A2 [EG]2 [FA]2 | G4 [CF]4 |] %13
V:2
|: x8 | (C=B,) x6 | x8 | x9 :| x8 | F3 (G2 E) x2 | x4 F3 (c2 E) | x2 (CD) x4 | F3 c2 E (DE) | x8 | %10
 x4 F2 x2 | x2 (CD) x4 | (F2 E2) x4 |] %13
V:3
|: [F,A,]2 [E,G,]2 F,2 z E, | [D,F,]2 G,2 (G,F,) [C,E,]2 | [D,A,]2 [E,G,]2 (F,G,) (D,E,) | %3
 F,3 z E, [F,,A,]4 :| C2 [D,D]2 [C,G,]2 D2 | [F,C]2 [C,C]2 [F,,C]4 | A,2 A,2 (B,A,) [C,G,]2 x2 | %7
 ([D,F,][E,G,]) (A,=B,) [C,C]4 | (CB,) [F,,A,]2 [G,,B,]2 [A,,C]2 | ([B,,D][A,,C]) [G,,B,]2 C4 | %10
 [B,,B,]4 [F,C]2 [E,C]2 | [D,F,][E,G,] (A,B,) [B,,C]2 C2 | (C3 B,) [F,,A,]4 |] %13
V:4
|: x4 F,2 C,2 | x2 (E,F,) G,2 x2 | x4 F,2 G,,2 | (A,,B,,) B,,2 x5 :| (F,E,) x3 (D,E,) x | x8 | %6
 (F,_E,) (D,C,) B,,2 x4 | x2 F,2 x4 | F,2 x6 | x4 (F,,G,,A,,F,,) | x8 | x2 F,2 x (A,,B,,) x | %12
 C,4 x4 |] %13

